X: 16
T:Kerry Shuffle
R:Reel
M:4/4
L:1/8
N:Rob Pine
H:Sweet Nell, Coal Holler CD 0246
K:A
|z6ef|:&#91;=g2A2&#93;&#91;g2A2&#93;&#91;gA&#93;&#91;fA&#93;&#91;eA&#93;&#91;fA&#93;|&#91;=gA&#93;&#91;fA&#93;&#91;gA&#93;&#91;fA&#93;&#91;gA&#93;&#91;a3A3&#93;|&#91;f6A6&#93;&#91;
fA&#93;&#91;fA&#93;|&#91;=g2A2&#93;&#91;f2A2&#93;&#91;eA&#93;&#91;fA&#93;&#91;a2A2&#93;|
&#91;a6A6&#93;&#91;eA&#93;&#91;fA&#93;|&#91;=g2A2&#93;&#91;f2A2&#93;&#91;eA&#93;&#91;fA&#93;&#91;gA&#93;&#91;eA&#93;|&#91;a2A2&#93;&#91;=g2A2&#93;&#91;eA&#93;&#91;fA&#93;&#91;eA&#93;&#91;d
A&#93;|&#91;1cABcA4:|2cABcA2EF|&#93;
|:=G2E2dBA2|=G2ABAGEF|=G4F3E|DEFDE4|=G2E2dBA2|
=G2ABA3=g|&#91;a2A2&#93;&#91;=g2A2&#93;&#91;eA&#93;&#91;fA&#93;&#91;eA&#93;&#91;dA&#93;|&#91;1cABcA2EF:|2cABcA4|&#93;
